X:2
T:Boys of Bluehill, The
R:hornpipe
C:Syracuse session setting
L:1/8
M:4/4
M:C|
K:D
dB|"D"{d}BAFA D2FA|"G"BA (3Bcd "A"e2de|"D"fagf "G"egfe|"D"dfed "G"B2dB|
"D"{d}BAFA D2FA|"G"BABd "A"e2de|"D"fagf "A"ef{g}fe|"D"d2 ~d2 d2:|
zg|"D"afdf a2gf|"G"~g3a b2ag|"D"fagf "A"egfe|"Bm"dfed "A"B2dB|
"D"{d}BAFA D2FA|BABd "A"e2de|"D"fagf "A"ef{g}fe|"G"d2 ~d2 "D"d2:|
